!!!OTL: Der Maedchenmoerder (Halewijn - Ulinger) Es ritt ein Ritter wohl ueber das Ried,
!!!ARE: Europa, Mitteleuropa, Schweiz, Kanton Bern
!!!YOR: 2, S. 112
!!    1909 aufgezeichnet (vor)
!!!SCT: Q0041R
!!!YEM: Copyright 1995, estate of Helmut Schaffrath.
**kern
*ICvox
*Ivox
*M6/8
*k[f#]
*G:
{8d
=1
4b
8g
8.g
16g
8b
=2
8.a
16a
8f#
4f#}
{8a
=3
4g
8e
8.e
16f#
8g
=4
4a
8f#
4d}
{8d
=5
8g
8f#
8e
8d
8B
8d
=6
4g
8b
4dd}
{8b
=7
8a
8a
8a
8dd
8f#
8f#
=8
4a
8b
4g}
==
!!!AGN: Ballade, Verfuehrung, Mord, Mordversuch bzw. Rache
!!!ONB: ESAC (Essen Associative Code) Database: BALLADE
!!!AMT: compound duple
!!!AIN: vox
!!!EED: Helmut Schaffrath
!!!EEV: 1.0
*-
